logos/zeroheight.svg

<?xml version="1.0" encoding="UTF-8"?>
<svg width="512px" height="89px" viewBox="0 0 512 89" version="1.1" xmlns="http://www.w3.org/2000/svg" preserveAspectRatio="xMidYMid">
    <title>zeroheight</title>
    <defs>
        <linearGradient x1="15.7507791%" y1="100%" x2="84.2492209%" y2="0%" id="zeroheightLinearGradient-1">
            <stop stop-color="#EC407A" offset="0%"></stop>
            <stop stop-color="#FFA000" offset="100%"></stop>
        </linearGradient>
    </defs>
    <g>
        <path d="M104.622585,67.234528 L135.609326,29.8765766 L105.126863,29.8765766 L105.126863,26.6025343 L140.324699,26.6025343 L140.324699,29.6244377 L109.424514,66.9823891 L140.159116,66.9823891 L140.159116,70.2564314 L104.618822,70.2564314 L104.618822,67.234528 L104.622585,67.234528 Z M168.364802,71.0956861 C165.278923,71.0956861 162.41884,70.4935172 159.777026,69.2892717 C157.179558,68.1162321 154.845045,66.4319018 152.912827,64.3368124 C148.893628,59.9516644 146.682096,54.2084022 146.722253,48.2601358 C146.722253,45.1817834 147.27169,42.2878311 148.366801,39.5707524 C149.461912,36.8574369 150.963455,34.4790521 152.871432,32.4355982 C154.784793,30.3888524 157.089531,28.7469983 159.649075,27.6073266 C162.312931,26.4209644 165.20045,25.8203604 168.116426,25.8461177 C171.202305,25.8461177 174.062388,26.4482404 176.700438,27.6524858 C179.338488,28.8567312 181.615265,30.4749361 183.523241,32.51839 C185.451417,34.5925593 186.966234,37.0155004 187.986476,39.6573075 C189.05148,42.3668597 189.585864,45.2382324 189.585864,48.2601358 L189.585864,49.3138506 C189.60443,49.5815742 189.575119,49.8504637 189.499309,50.1078999 L151.102696,50.1078999 C151.412282,54.8376055 153.397675,59.302071 156.702437,62.6997913 C158.245377,64.2690736 160.029165,65.4996619 162.05004,66.3953194 C164.092442,67.2955222 166.302208,67.7533785 168.534149,67.7388058 C170.044031,67.7400439 171.546553,67.5284746 172.997383,67.1103402 C174.423392,66.7038101 175.794547,66.1250186 177.080528,65.3867639 C178.325407,64.6741521 179.459996,63.7842287 180.448652,62.7449505 C181.430865,61.7062888 182.202334,60.5735454 182.763061,59.3429571 L186.469879,60.3515127 C185.852703,61.9170317 184.93823,63.3621262 183.733984,64.6755064 C182.525975,65.9926499 181.122277,67.12163 179.522888,68.0737365 C177.9235,69.0258431 176.169817,69.7672067 174.261841,70.2978273 C172.341715,70.8313125 170.357658,71.0997363 168.364802,71.0956861 L168.364802,71.0956861 Z M185.544115,46.7473025 C185.408835,44.3112179 184.823162,41.9213139 183.816776,39.6987034 C182.891724,37.6534548 181.608312,35.7901501 180.027166,34.1968071 C178.492466,32.6638807 176.678555,31.4388524 174.683327,30.5878341 C172.634003,29.7141169 170.426973,29.2709176 168.199218,29.2857437 C165.971463,29.2709176 163.764433,29.7141169 161.715109,30.5878341 C157.613747,32.3334678 154.36214,35.6202124 152.660689,39.7400994 C151.71796,41.966423 151.163029,44.33761 151.019904,46.7510658 L185.544115,46.7510658 L185.544115,46.7473025 Z M219.564049,30.3770911 C215.631435,30.4899891 212.191809,31.6528386 209.245171,33.8618763 C206.298533,36.0746773 204.236263,39.1116338 203.05836,42.9689824 L203.05836,70.2564314 L198.847264,70.2564314 L198.847264,26.6062976 L202.889013,26.6062976 L202.889013,37.3504248 C204.40561,34.2720724 206.411431,31.7657366 208.91024,29.8351807 C211.409049,27.9046247 214.088496,26.8019875 216.952342,26.5235057 C217.513069,26.4632934 218.017346,26.4369506 218.465175,26.4369506 L219.560286,26.4369506 L219.560286,30.3808544 L219.564049,30.3770911 Z M245.918208,71.0956399 C242.832329,71.0956399 239.979772,70.4935172 237.371828,69.2892717 C234.80725,68.1212021 232.501712,66.4528218 230.590421,64.3819716 C228.660898,62.2774889 227.14657,59.8272387 226.127187,57.1602623 C225.058012,54.4029631 224.515503,51.4695846 224.527461,48.5122747 C224.511732,45.5235461 225.070033,42.5595637 226.172346,39.7814953 C227.263693,37.0380737 228.769,34.6333461 230.676976,32.559786 C232.585709,30.488393 234.888645,28.8187642 237.450857,27.6487225 C240.107232,26.4345887 242.997616,25.8179734 245.918208,25.8423544 C248.947638,25.8423544 251.751272,26.4444771 254.336636,27.6487225 C256.918237,28.852968 259.179961,30.4899891 261.11428,32.559786 C265.123593,36.9014105 267.336045,42.6026792 267.305179,48.5122747 C267.305179,51.5341781 266.755417,54.4206039 265.66407,57.1602623 C264.618113,59.8242374 263.089746,62.2724309 261.155676,64.3819716 C259.246943,66.4533646 256.944007,68.1229934 254.381795,69.293035 C251.770088,70.4972805 248.947638,71.0994032 245.914444,71.0994032 L245.918208,71.0956399 Z M228.738688,48.6816217 C228.738688,51.2556964 229.190486,53.675477 230.086144,55.944727 C230.985564,58.2102137 232.204863,60.1821656 233.747802,61.8605827 C235.290742,63.5389998 237.104636,64.8711963 239.18196,65.8496457 C241.259283,66.8280951 243.472084,67.3173198 245.831653,67.3173198 C248.191221,67.3173198 250.407785,66.8280951 252.485109,65.8496457 C254.561751,64.8698777 256.422004,63.4855635 257.956899,61.7777908 C261.258166,58.1209715 263.062424,53.3557437 263.010966,48.4294828 C263.027972,45.9447908 262.570712,43.4796745 261.663717,41.1663776 C260.807327,38.9672622 259.550463,36.946071 257.956899,35.2053627 C256.416322,33.5215397 254.574559,32.140537 252.526505,31.1335078 C250.47041,30.1252821 248.208142,29.6086708 245.918208,29.6240874 C243.558639,29.6240874 241.342075,30.1249522 239.264752,31.1335078 C237.200204,32.1316318 235.354384,33.5297472 233.834357,35.2467586 C232.291418,36.9816247 231.053303,39.0100256 230.127539,41.3357246 C229.198783,43.672916 228.727369,46.1666823 228.738688,48.6816217 L228.738688,48.6816217 Z M313.194132,70.2564314 L308.983036,70.2564314 L308.983036,45.9118572 C308.983036,35.111281 305.362773,29.7109929 298.122247,29.7109929 C296.327169,29.7109929 294.573487,30.0496869 292.8612,30.7195484 C291.148914,31.3894099 289.549525,32.3377532 288.059271,33.5721048 C286.572781,34.8026931 285.266927,36.2440243 284.145474,37.8960986 C283.03085,39.5310716 282.178834,41.3303361 281.620322,43.2286479 L281.620322,70.2601946 L277.405463,70.2601946 L277.405463,8.97162849 L281.620322,8.97162849 L281.620322,37.0079675 C283.337872,33.6816001 285.909614,30.8721676 289.07159,28.8680211 C292.116287,26.8909205 295.66985,25.8410637 299.30015,25.8461177 C301.716167,25.8461177 303.793491,26.2939464 305.53212,27.189604 C307.270749,28.0852615 308.719607,29.3722988 309.867404,31.0507159 C311.018963,32.729133 311.861935,34.7575339 312.396319,37.1359186 C312.92694,39.5143034 313.194132,42.1899862 313.194132,45.1516773 L313.194132,70.2564314 L313.194132,70.2564314 Z M344.519566,71.0956787 C341.433687,71.0956787 338.566078,70.4935172 335.928028,69.2892717 C333.331906,68.1157975 330.998707,66.4314919 329.067592,64.3368124 C325.048393,59.9516644 322.83686,54.2084022 322.877018,48.2601358 C322.877018,45.1817834 323.426455,42.2878311 324.521565,39.5707524 C325.612913,36.8574369 327.11822,34.4790521 329.026196,32.4355982 C330.938454,30.3892624 333.241878,28.7474326 335.800076,27.6073266 C338.463932,26.4209644 341.351451,25.8203604 344.267427,25.8461177 C347.353306,25.8461177 350.213389,26.4482404 352.855202,27.6524858 C355.489489,28.8567312 357.766266,30.4749361 359.674242,32.51839 C361.602418,34.5925593 363.117235,37.0155004 364.137477,39.6573075 C365.202481,42.3668597 365.736865,45.2382324 365.736865,48.2601358 L365.736865,49.3138506 C365.756651,49.5813502 365.728616,49.8502354 365.654073,50.1078999 L327.253697,50.1078999 C327.563283,54.8376055 329.548676,59.302071 332.853438,62.6997913 C334.396378,64.2690736 336.180166,65.4996619 338.197278,66.3953194 C340.23968,67.2955222 342.449446,67.7533785 344.681387,67.7388058 C346.191269,67.7400439 347.693791,67.5284746 349.144621,67.1103402 C350.57063,66.7038101 351.941785,66.1250186 353.227766,65.3867639 C354.472645,64.6741521 355.607234,63.7842287 356.59589,62.7449505 C357.578102,61.7062888 358.353335,60.5735454 358.914062,59.3429571 L362.617117,60.3515127 C361.999941,61.9170317 361.089231,63.3621262 359.881222,64.6755064 C358.676976,65.9926499 357.269515,67.12163 355.670126,68.0737365 C354.070738,69.0258431 352.320819,69.7672067 350.409079,70.2978273 C348.490167,70.8309726 346.507399,71.0993933 344.515803,71.0956787 L344.519566,71.0956787 Z M361.695117,46.7473025 C361.559836,44.3112179 360.974163,41.9213139 359.967777,39.6987034 C359.043856,37.653743 357.761732,35.7904572 356.18193,34.1968071 C354.646117,32.6634834 352.830897,31.4384333 350.834328,30.5878341 C348.785004,29.7141169 346.577974,29.2709176 344.350219,29.2857437 C342.122464,29.2709176 339.915434,29.7141169 337.86611,30.5878341 C333.766169,32.3342771 330.516017,35.6209169 328.815453,39.7400994 C327.871432,41.9661929 327.315226,44.3373882 327.170905,46.7510658 L361.695117,46.7510658 L361.695117,46.7473025 Z M374.998265,70.2564314 L374.998265,26.6062976 L379.213124,26.6062976 L379.213124,70.2601946 L374.998265,70.2601946 L374.998265,70.2564314 Z M374.998265,16.6938524 L374.998265,8.97162849 L379.213124,8.97162849 L379.213124,16.6938524 L374.998265,16.6938524 L374.998265,16.6938524 Z M410.109546,70.9300562 C407.222587,70.9619604 404.368547,70.3148384 401.777673,69.0408961 C399.289835,67.810632 397.071612,66.0977136 395.252168,64.0018816 C393.411799,61.8788221 391.957295,59.4499797 390.954517,56.8253315 C389.922673,54.1753303 389.394302,51.3560757 389.396518,48.5122747 C389.396518,45.5468203 389.889513,42.6905007 390.871726,39.9508423 C391.804503,37.2946087 393.21792,34.8326099 395.041425,32.687737 C396.836504,30.5878341 398.981566,28.9244701 401.480375,27.6901185 C403.979184,26.4595302 406.745186,25.8461177 409.774616,25.8461177 C413.594332,25.8461177 416.917296,26.8396201 419.7548,28.8266251 C422.571367,30.7954983 425.010052,33.2558547 426.953929,36.0897304 L426.953929,26.5950078 L430.826331,26.5950078 L430.826331,71.0918766 C430.826331,74.0610943 430.261841,76.6615118 429.140387,78.9006556 C428.071784,81.0733733 426.533047,82.9810479 424.635757,84.4853438 C422.754123,85.968071 420.567665,87.0857613 418.068856,87.842178 C415.570047,88.5948314 412.94705,88.9749214 410.196101,88.9749214 C407.903167,88.9993546 405.615056,88.7594313 403.377062,88.2599006 C401.508945,87.8428366 399.708777,87.1650815 398.029459,86.2465528 C396.504331,85.3926724 395.114347,84.3172106 393.904919,83.0553024 C392.696148,81.7955589 391.635531,80.4016056 390.743774,78.9006556 L393.607621,76.9700997 C395.350013,79.9355541 397.709582,82.1069591 400.682563,83.4767883 C403.655543,84.8466175 406.827978,85.5315321 410.196101,85.5315321 C412.442772,85.5315321 414.561491,85.2267074 416.556023,84.6095316 C418.546791,83.9923559 420.28542,83.0854085 421.775674,81.8811631 C423.262164,80.6769176 424.440067,79.1791374 425.313145,77.3878223 C426.178696,75.6002705 426.615235,73.5003675 426.615235,71.0918766 L426.615235,61.5294152 C424.834314,64.368823 422.374403,66.7200944 419.457502,68.3710346 C416.625105,70.0382704 413.39996,70.9215158 410.11331,70.9300562 L410.109546,70.9300562 Z M411.125628,67.3175555 C412.984522,67.3162939 414.826212,66.9612386 416.552259,66.2711316 C418.320995,65.571164 419.920383,64.6604534 421.354188,63.5389998 C422.78423,62.4213095 423.962132,61.1606151 424.891659,59.764443 C425.817423,58.3645077 426.393203,56.9645724 426.615235,55.5646371 L426.615235,41.2077735 C425.276438,37.8727007 423.012363,34.9897256 420.08973,32.89848 C418.663266,31.893135 417.105862,31.0878431 415.460912,30.5050422 C413.852954,29.9259609 412.157291,29.6280741 410.44824,29.6244377 C407.813953,29.6244377 405.454385,30.1814012 403.373298,31.3028548 C401.341266,32.385468 399.551163,33.8708179 398.112251,35.6682445 C396.666916,37.486474 395.555823,39.5468385 394.830682,41.7534472 C394.083374,43.9572744 393.699527,46.267988 393.694176,48.5950666 C393.694176,51.1164555 394.142005,53.4948402 395.041425,55.7339841 C395.937083,57.9731279 397.171434,59.9601329 398.74448,61.694999 C400.317526,63.4261018 402.169053,64.7996942 404.302825,65.8082498 C406.434505,66.8145392 408.76464,67.3302038 411.121865,67.3175555 L411.125628,67.3175555 Z M479.748802,70.2564314 L475.537706,70.2564314 L475.537706,45.9118572 C475.537706,35.111281 471.917443,29.7109929 464.676918,29.7109929 C462.878076,29.7109929 461.124394,30.0496869 459.412107,30.7195484 C457.699821,31.3894099 456.100432,32.3377532 454.613942,33.5721048 C453.127451,34.8026931 451.821598,36.2440243 450.700144,37.8960986 C449.584199,39.5308329 448.730908,41.3301095 448.171229,43.2286479 L448.171229,70.2601946 L443.960133,70.2601946 L443.960133,8.97162849 L448.174992,8.97162849 L448.174992,37.0079675 C449.892543,33.6816001 452.464284,30.8721676 455.626261,28.8680211 C458.670957,26.8909205 462.22452,25.8410637 465.85482,25.8461177 C468.267074,25.8461177 470.344398,26.2939464 472.08679,27.189604 C473.82542,28.0852615 475.270514,29.3722988 476.422074,31.0507159 C477.573634,32.729133 478.416605,34.7575339 478.947226,37.1359186 C479.48161,39.5143034 479.748802,42.1899862 479.748802,45.1516773 L479.748802,70.2564314 L479.748802,70.2564314 Z M512,68.1565284 C511.774204,68.2694264 511.394114,68.4801693 510.85973,68.7887572 C510.329109,69.0973451 509.655485,69.39088 508.838856,69.6693617 C507.941719,69.9713275 507.028312,70.2226086 506.102961,70.4220151 C505.094405,70.6478111 503.995531,70.7607091 502.821392,70.7607091 C501.639726,70.7607091 500.533325,70.5913621 499.494664,70.2564314 C498.491358,69.9404951 497.561217,69.4274464 496.758769,68.7473613 C495.973284,68.0778118 495.340613,67.2475114 494.903478,66.3125276 C494.432472,65.2561528 494.202373,64.1082255 494.229853,62.9519301 L494.229853,30.0421604 L488.084438,30.0421604 L488.084438,26.5987711 L494.229853,26.5987711 L494.229853,11.6586011 L498.440949,11.6586011 L498.440949,26.5987711 L508.628113,26.5987711 L508.628113,30.0421604 L498.440949,30.0421604 L498.440949,61.9471379 C498.440949,63.5653427 499.005439,64.7846412 500.126893,65.5975068 C501.248346,66.4103725 502.509041,66.8168053 503.912739,66.8168053 C505.655132,66.8168053 507.156675,66.5195072 508.41737,65.9324376 C509.681828,65.3453679 510.453297,64.9690412 510.735542,64.8034575 L511.996237,68.1565284 L512,68.1565284 Z" fill="#000000"></path>
        <path d="M6.10025578,0 L12.2042748,13.0058507 L0,13.0058507 L6.10025578,0 Z M0,15.0605945 L12.2042748,15.0605945 L12.2042748,73.2519919 L0,73.2519919 L0,15.0605945 Z M0,75.3067357 L12.2042748,75.3067357 L12.2042748,82.3816776 L0,82.3816776 L0,75.3067357 Z M21.7140505,12.9719813 L30.1663482,4.52721018 L69.0183165,43.4092847 L29.9706583,83.3939964 L21.5334137,75.3782377 L52.2040396,43.4657337 L21.7140505,12.9757446 L21.7140505,12.9719813 Z" fill="url(#zeroheightLinearGradient-1)"></path>
    </g>
</svg>

<svg preserveAspectRatio="xMidYMid" viewBox="0 0 512 89" xmlns="http://www.w3.org/2000/svg">
  <defs>
    <linearGradient id="zeroheight_svg__a" x1="15.751%" x2="84.249%" y1="100%" y2="0%">
      <stop offset="0%" stop-color="#EC407A"/>
      <stop offset="100%" stop-color="#FFA000"/>
    </linearGradient>
  </defs>
  <path d="m104.623 67.235 30.986-37.358h-30.482v-3.274h35.198v3.021l-30.9 37.358h30.734v3.274h-35.54v-3.021h.004Zm63.742 3.86c-3.086 0-5.946-.601-8.588-1.806a21.217 21.217 0 0 1-6.864-4.952 23.558 23.558 0 0 1-6.19-16.077c0-3.078.549-5.972 1.644-8.69 1.095-2.713 2.596-5.09 4.504-7.134a20.935 20.935 0 0 1 6.778-4.829 20.37 20.37 0 0 1 8.467-1.76c3.086 0 5.946.601 8.584 1.805 2.638 1.205 4.915 2.823 6.823 4.866a22.267 22.267 0 0 1 4.463 7.14c1.065 2.709 1.6 5.58 1.6 8.602v1.054c.018.268-.01.536-.087.794h-38.396a19.927 19.927 0 0 0 5.6 12.592 17.209 17.209 0 0 0 5.347 3.695 15.82 15.82 0 0 0 6.484 1.344 16.07 16.07 0 0 0 4.463-.629 18.252 18.252 0 0 0 4.084-1.723 14.79 14.79 0 0 0 3.368-2.642 12.447 12.447 0 0 0 2.314-3.402l3.707 1.009c-.617 1.565-1.532 3.01-2.736 4.324a18.518 18.518 0 0 1-4.211 3.398 21.482 21.482 0 0 1-5.261 2.224c-1.92.533-3.904.802-5.897.798Zm17.18-24.348a19.742 19.742 0 0 0-1.728-7.048 18.824 18.824 0 0 0-3.79-5.502 16.999 16.999 0 0 0-5.344-3.61 16.257 16.257 0 0 0-6.484-1.301 16.257 16.257 0 0 0-6.484 1.302 16.999 16.999 0 0 0-9.054 9.152 21.198 21.198 0 0 0-1.641 7.011h34.524v-.004Zm34.019-16.37c-3.933.113-7.372 1.276-10.319 3.485-2.946 2.213-5.009 5.25-6.187 9.107v27.287h-4.21v-43.65h4.041V37.35c1.517-3.078 3.522-5.584 6.021-7.515 2.499-1.93 5.178-3.033 8.042-3.311.561-.06 1.065-.087 1.513-.087h1.095v3.944l.004-.004Zm26.354 40.719c-3.086 0-5.938-.602-8.546-1.807a21.168 21.168 0 0 1-6.782-4.907 22.655 22.655 0 0 1-4.463-7.222 23.656 23.656 0 0 1-1.6-8.648 23.34 23.34 0 0 1 1.645-8.73c1.092-2.744 2.597-5.149 4.505-7.222a21.168 21.168 0 0 1 6.774-4.911 19.968 19.968 0 0 1 8.467-1.807c3.03 0 5.833.602 8.419 1.807a21.81 21.81 0 0 1 6.777 4.91 23.334 23.334 0 0 1 6.191 15.953c0 3.022-.55 5.909-1.64 8.648a23.272 23.272 0 0 1-4.51 7.222 21.168 21.168 0 0 1-6.773 4.911c-2.612 1.204-5.434 1.806-8.468 1.806l.004-.003Zm-17.18-22.414c0 2.574.452 4.993 1.348 7.263.9 2.265 2.119 4.237 3.662 5.916a17.369 17.369 0 0 0 5.434 3.989c2.077.978 4.29 1.467 6.65 1.467 2.36 0 4.576-.489 6.653-1.467a17.258 17.258 0 0 0 5.472-4.072 19.614 19.614 0 0 0 5.054-13.349c.017-2.484-.44-4.95-1.347-7.263a19.084 19.084 0 0 0-3.707-5.96 18.312 18.312 0 0 0-5.43-4.072 14.783 14.783 0 0 0-6.609-1.51c-2.36 0-4.576.501-6.653 1.51a17.322 17.322 0 0 0-5.43 4.113c-1.544 1.735-2.782 3.763-3.707 6.089a19.652 19.652 0 0 0-1.39 7.346Zm84.456 21.574h-4.211V45.912c0-10.8-3.62-16.201-10.86-16.201-1.796 0-3.55.339-5.262 1.009a17.477 17.477 0 0 0-4.802 2.852 20.588 20.588 0 0 0-3.914 4.324 18.974 18.974 0 0 0-2.525 5.333V70.26h-4.215V8.972h4.215v28.036a21.097 21.097 0 0 1 7.452-8.14 18.734 18.734 0 0 1 10.228-3.022c2.416 0 4.493.448 6.232 1.344 1.739.895 3.188 2.182 4.335 3.86 1.152 1.68 1.995 3.708 2.53 6.086.53 2.378.797 5.054.797 8.016v25.104Zm31.326.84c-3.086 0-5.954-.602-8.592-1.807a21.217 21.217 0 0 1-6.86-4.952 23.558 23.558 0 0 1-6.191-16.077c0-3.078.55-5.972 1.645-8.69 1.09-2.713 2.596-5.09 4.504-7.134a20.935 20.935 0 0 1 6.774-4.829 20.37 20.37 0 0 1 8.467-1.76c3.086 0 5.946.601 8.588 1.805 2.634 1.205 4.911 2.823 6.82 4.866a22.267 22.267 0 0 1 4.462 7.14c1.065 2.709 1.6 5.58 1.6 8.602v1.054c.02.267-.008.536-.083.794h-38.4a19.927 19.927 0 0 0 5.6 12.592 17.236 17.236 0 0 0 5.343 3.695 15.82 15.82 0 0 0 6.484 1.344 16.07 16.07 0 0 0 4.464-.629 18.252 18.252 0 0 0 4.083-1.723 14.79 14.79 0 0 0 3.368-2.642 12.461 12.461 0 0 0 2.318-3.402l3.703 1.009c-.617 1.565-1.528 3.01-2.736 4.324-1.204 1.317-2.611 2.446-4.21 3.398a21.42 21.42 0 0 1-5.262 2.224 21.862 21.862 0 0 1-5.893.798h.004Zm17.175-24.349a19.742 19.742 0 0 0-1.727-7.048 18.824 18.824 0 0 0-3.786-5.502 16.999 16.999 0 0 0-5.348-3.61 16.257 16.257 0 0 0-6.484-1.301 16.257 16.257 0 0 0-6.484 1.302 16.999 16.999 0 0 0-9.05 9.152 21.198 21.198 0 0 0-1.645 7.011h34.524v-.004Zm13.303 23.51v-43.65h4.215V70.26h-4.215v-.004Zm0-53.563V8.972h4.215v7.722h-4.215ZM410.11 70.93a18.421 18.421 0 0 1-8.332-1.89 20.924 20.924 0 0 1-6.526-5.038 24.074 24.074 0 0 1-4.297-7.177 22.862 22.862 0 0 1-1.558-8.313c0-2.965.493-5.821 1.475-8.561a22.956 22.956 0 0 1 4.17-7.263 20.066 20.066 0 0 1 6.438-4.998c2.5-1.23 5.265-1.844 8.295-1.844 3.82 0 7.142.994 9.98 2.98a28.6 28.6 0 0 1 7.199 7.264v-9.495h3.872v44.497c0 2.97-.564 5.57-1.686 7.809a16.318 16.318 0 0 1-4.504 5.584c-1.882 1.483-4.068 2.6-6.567 3.357-2.499.753-5.122 1.133-7.873 1.133a29.843 29.843 0 0 1-6.819-.715 20.412 20.412 0 0 1-5.348-2.013 17.669 17.669 0 0 1-4.124-3.192 22.88 22.88 0 0 1-3.161-4.154l2.864-1.93c1.742 2.965 4.102 5.136 7.075 6.506s6.145 2.055 9.513 2.055c2.247 0 4.365-.305 6.36-.922 1.99-.618 3.73-1.525 5.22-2.729 1.486-1.204 2.664-2.702 3.537-4.493.866-1.788 1.302-3.888 1.302-6.296v-9.563a20.186 20.186 0 0 1-7.157 6.842 18.515 18.515 0 0 1-9.345 2.56h-.003Zm1.016-3.612c1.859-.002 3.7-.357 5.426-1.047 1.769-.7 3.368-1.61 4.802-2.732 1.43-1.118 2.608-2.378 3.538-3.775.925-1.4 1.501-2.8 1.723-4.2V41.209a18.854 18.854 0 0 0-6.525-8.31 19.117 19.117 0 0 0-4.63-2.393 14.887 14.887 0 0 0-5.012-.88c-2.634 0-4.994.556-7.075 1.678a16.946 16.946 0 0 0-5.26 4.365 19.625 19.625 0 0 0-3.282 6.085 21.458 21.458 0 0 0-1.137 6.842c0 2.521.448 4.9 1.347 7.139a19.664 19.664 0 0 0 3.703 5.961 17.602 17.602 0 0 0 5.559 4.113 15.775 15.775 0 0 0 6.819 1.51h.004Zm68.623 2.938h-4.211V45.912c0-10.8-3.62-16.201-10.861-16.201a14.33 14.33 0 0 0-5.265 1.009 17.403 17.403 0 0 0-4.798 2.852 20.588 20.588 0 0 0-3.914 4.324 18.974 18.974 0 0 0-2.529 5.333V70.26h-4.21V8.972h4.214v28.036a21.097 21.097 0 0 1 7.451-8.14 18.734 18.734 0 0 1 10.229-3.022c2.412 0 4.49.448 6.232 1.344 1.738.895 3.184 2.182 4.335 3.86 1.152 1.68 1.995 3.708 2.525 6.086.535 2.378.802 5.054.802 8.016v25.104Zm32.251-2.1c-.226.113-.606.324-1.14.633-.53.308-1.205.602-2.021.88-.897.302-1.81.554-2.736.753a15.045 15.045 0 0 1-3.282.339c-1.181 0-2.288-.17-3.326-.505a7.903 7.903 0 0 1-2.736-1.509 7.214 7.214 0 0 1-1.856-2.434 7.797 7.797 0 0 1-.673-3.361v-32.91h-6.146V26.6h6.146V11.66h4.21V26.6h10.188v3.443h-10.187v31.905c0 1.618.564 2.838 1.686 3.65a6.29 6.29 0 0 0 3.786 1.22c1.742 0 3.244-.297 4.504-.885 1.265-.587 2.036-.963 2.319-1.129l1.26 3.354H512Z"/>
  <path fill="url(#zeroheight_svg__a)" d="m6.1 0 6.104 13.006H0L6.1 0ZM0 15.06h12.204v58.192H0V15.061Zm0 60.247h12.204v7.075H0v-7.075Zm21.714-62.335 8.452-8.445L69.018 43.41 29.971 83.394l-8.438-8.016 30.671-31.912-30.49-30.49v-.004Z"/>
</svg>
